!!!!SEGMENT: 045-2-Sm.krn
!!!COM: Chopin, Fryderyk
!!!OTL: Prelude
!!!OPS: Op. 45
!!!PTL: PRÉLUDE pour le PIANO
!!!PPR: M. Schlesinger
!!!PPP: Paris
!!!NIFC-rismID: 
!!!NIFC-shelfmark: 
!!!OMD: Sostenuto.
!!!system-decoration: {(s1,s2)}
**kern	**fing	**kern	**fing	**dynam
*part1	*part1	*part1	*part1	*part1
*staff2	*	*staff1	*	*
*I"P I A N O .	*	*	*	*
*clefF4	*	*clefG2	*	*
*k[f#c#g#d#]	*	*k[f#c#g#d#]	*	*
*c#:	*	*c#:	*	*
*M2/2	*	*M2/2	*	*
*met(c|)	*	*met(c|)	*	*
=1	=1	=1	=1	=1
4r	.	4r	.	.
*clefG2	*	*	*	*
!	!	!	!	!LO:DY:rj
4g#/ 4e/	.	(>4cc#\	.	p
4f#/ 4dn/	.	4bn\	.	.
4e/ 4c#/	.	4a\	.	.
=2	=2	=2	=2	=2
*clefF4	*	*	*	*
4d#\ 4B#X\	.	4g#/	.	.
.	.	8qb\	.	.
4e\ 4c#\	.	4a/	.	.
4dn\ 4Bn\	.	4gn/	.	.
4c#\ 4A\	.	4f#/	.	.
=3	=3	=3	=3	=3
4B\ 4G#\	.	4e#X/	.	.
4c#\ 4A\	.	4f#/	.	.
4B\ 4G#\	.	4en/	.	.
4A\ 4F#\	.	4dn/	.	.
=4	=4	=4	=4	=4
*^	*	*	*	*
*	*^	*	*	*	*
4A/	2E\	2rBBByy	.	2.c#/	.	.
2G#/	.	.	.	.	.	.
.	2D#/	4rGG	.	.	.	.
*ped	*	*	*	*	*	*
4ryy	.	4GGG#\	.	4B#X/	.	.
*	*v	*v	*	*	*	*
!!LO:LB:g=original	!	!	!	!	!
=5	=5	=5	=5	=5	=5
2G#/ 2E/	(>8CCC#\L	.	4.d#/	.	>
.	8CC#\	.	.	.	.
.	8GG#\	.	.	.	.
.	8E\J	.	8c#/)	.	]
!	!LO:TX:b:t=sempre legato	!	!	!	!
2rcyy	8D#\L	.	2r	.	.
.	8C#\	.	.	.	.
.	8G#\	.	.	.	.
.	8e\J	.	.	.	.
*v	*v	*	*	*	*
=6	=6	=6	=6	=6
*	*	*^	*	*
8d#>\L	.	2r	2reyy	.	.
8c#>\	.	.	.	.	.
8e>\	.	.	.	.	.
8f#>\J)	.	.	.	.	.
*Xped	*	*	*	*	*
!	!	!	!LO:N:vis=2	!	!
2r	.	2ryy	(8gg#\ g#\L	.	>
.	.	.	8cc#\	.	.
.	.	.	8dd#\	.	.
.	.	.	8qff#/	.	.
.	.	.	8ee\J	.	]
=7	=7	=7	=7	=7	=7
!	!	!	!LO:TX:a:t=P:problem:całe nuty w zrodle sa przesuniete w lewo wzgledem pierwszej miary taktu:global	!	!
8r	.	[2.dd#\	1gg#\ 1g#\	.	>
*ped	*	*	*	*	*
(>8CC#/L	.	.	.	.	.
8GG#/	.	.	.	.	.
8E\J	.	.	.	.	.
8D#\L	.	.	.	.	.
8C#/	.	.	.	.	.
8G#\	.	8dd#\L]	.	.	.
8e\J	.	8cc#\J)	.	.	]
!!LO:LB:g=original
=8	=8	=8	=8	=8	=8
*	*	*	*	*	*
8d#>\L	.	2reyy	2rb	.	.
8c#>\	.	.	.	.	.
8e>\	.	.	.	.	.
8g#>\J)	.	.	.	.	.
*Xped	*	*	*	*	*
4r	.	(>8g#L\	4gg#/ g#/	.	<
.	.	8cc#/	.	.	.
8r	.	8ee/	4ee/	.	.
[8FF#/	.	8aa#X/J 8a#X/	.	.	[
*	*	*v	*v	*	*
=9	=9	=9	=9	=9
*ped	*	*	*	*
(8FF#/L]	.	4.ccc#\ 4.ee\ 4.a#\	.	.
8BBB/	.	.	.	.
8FF#/	.	.	.	.
8D#\J	.	8bb\) 8dd#\ 8b\	.	]
8C#/L	.	2r	.	.
8BB/	.	.	.	.
8F#\	.	.	.	.
8d#\J	.	.	.	.
.	.	.	.	.
=10	=10	=10	=10	=10
*	*	*^	*	*
8c#>\L	.	1ryy	2rb	.	.
8B>\	.	.	.	.	.
8d#>\	.	.	.	.	.
8e>\J)	.	.	.	.	.
!	!	!	!LO:N:vis=2	!	!
*Xped	*	*	*	*	*
2r	.	.	(>8ff#\ f#\L	.	.
.	.	.	8b\	.	.
.	.	.	8cc#\	.	.
.	.	.	8qee/	.	.
.	.	.	8ddn\J	.	.
!!LO:PB:g=original
=11	=11	=11	=11	=11	=11
*ped	*	*	*	*	*
8r	.	[2.cc#\	1ff#\ 1f#\	.	>
(>8BBBL\	.	.	.	.	.
8FF#/	.	.	.	.	.
8Dn\J	.	.	.	.	.
8C#L\	.	.	.	.	.
8BB/	.	.	.	.	.
8F#\	.	8cc#\L]	.	.	.
8dn\J	.	8b\J)	.	.	]
*	*	*	*	*	*
.	.	.	.	.	.
=12	=12	=12	=12	=12	=12
8c#>\L	.	2rcyy	2rb	.	.
8B>\	.	.	.	.	.
8dn>\	.	.	.	.	.
8e>\J)	.	.	.	.	.
!	!	!LO:N:vis=4.	!	!	!
*Xped	*	*	*	*	*
4r	.	8ff#\ 8f#L\	(>4.ff#/	.	<
.	.	8b/	.	.	.
8r	.	8ddn/	.	.	.
[8EE/	.	8gg#/J 8g#/	8rcyy	.	[
*	*	*v	*v	*	*
=13	=13	=13	=13	=13
.	.	8qg#/	.	.
*ped	*	*	*	*
(8EE/L]	.	4.bb\ 4.ddn\ 4.g#\	.	>
8AAA/	.	.	.	.
8EE/	.	.	.	.
8C#/J	.	8aa\) 8cc#\ 8a\	.	]
8BB/L	.	4r	.	.
8AA/	.	.	.	.
8E\	.	(>4aa\ 4cc#\ 4a\	.	.
*Xped	*	*	*	*
8c#\J)	.	.	.	.
!!LO:LB:g=original
=14	=14	=14	=14	=14
*ped	*	*	*	*
8r	.	4aa\ 4cc#\ 4a\	.	.
(>8EE#X\L	.	.	.	.
8C#/	.	4gg#\ 4b\ 4g#\	.	.
*Xped	*	*	*	*
8c#\J)	.	.	.	.
*ped	*	*	*	*
8r	.	4ff#\ 4a\ 4f#\	.	.
(>8FF#\L	.	.	.	.
8C#\	.	4gg#\ 4b\ 4g#\	.	.
*Xped	*	*	*	*
8c#\J)	.	.	.	.
=15	=15	=15	=15	=15
*	*	*^	*	*
*ped	*	*	*	*	*
8r	.	[>2.ff#\ [<2.f#\	1a\	.	.
(>8DDnL\	.	.	.	.	.
8AA/	.	.	.	.	.
8F#\J	.	.	.	.	.
8E\L	.	.	.	.	.
8Dn\	.	.	.	.	.
8A\	.	8.ff#\L] 8.f#\]	.	.	.
*Xped	*	*	*	*	*
8f#\J)	.	.	.	.	.
.	.	16ee/Jk 16e/	.	.	.
=16	=16	=16	=16	=16	=16
*ped	*	*	*	*	*
8r	.	4ee\ 4e\	1a\	.	.
(>8DDnL\	.	.	.	.	.
8AA/	.	2ddn\ 2dn\	.	.	.
8F#\J	.	.	.	.	.
8E\L	.	.	.	.	.
8Dn\	.	.	.	.	.
8A\	.	4a^>\ 4d\	.	.	.
*Xped	*	*	*	*	*
8f#\J)	.	.	.	.	.
.	.	.	.	.	.
!!LO:LB:g=original
=17	=17	=17	=17	=17	=17
*ped	*	*	*	*	*
8r	.	[<2.dn/	1b\ 1gn\ 1B\	.	.
(8GGGn/L	.	.	.	.	.
8GGn/	.	.	.	.	.
8Dn\J	.	.	.	.	.
8E\L	.	.	.	.	.
8D\	.	.	.	.	.
8Gn\	.	8d/L]	.	.	.
*Xped	*	*	*	*	*
8E\J	.	8e/J	.	.	.
=18	=18	=18	=18	=18	=18
*ped	*	*	*	*	*
8D#XL\	.	4.a/ 4.f#/	2A\	.	.
8AA/	.	.	.	.	.
8DD#/	.	.	.	.	.
8F#\J	.	8f#/ 8dn/	.	.	.
*Xped	*	*	*	*	*
8D#\L	.	2a/ 2f#/ 2A/	2rFyy	.	.
8AA/	.	.	.	.	.
8GG#n/	.	.	.	.	.
8FF#/J)	.	.	.	.	.
*	*	*v	*v	*	*
=19	=19	=19	=19	=19
*ped	*	*	*	*
(8FFF#/L	.	2a/ 2f#/ 2c#/ 2A/)	.	.
8FF#/	.	.	.	.
8C#/	.	.	.	.
8A\J	.	.	.	.
8G#\L	.	2r	.	.
8F#\	.	.	.	.
8c#\	.	.	.	.
8a>\J	.	.	.	.
=20	=20	=20	=20	=20
8g#>\L	.	2r	.	.
8f#>\	.	.	.	.
8a>\	.	.	.	.
*Xped	*	*	*	*
8b>\J)	.	.	.	.
!	!	!LO:N:vis=2	!	!
2r	.	(8ccc#\L 8cc#\	.	>
.	.	8ff#\	.	.
.	.	8gg#\	.	.
.	.	8qbb/	.	.
.	.	8aa\J	.	]
!!LO:PB:g=original
=21	=21	=21	=21	=21
*	*	*^	*	*
*ped	*	*	*	*	*
8r	.	[2.gg#\	1ccc#\ 1cc#\	.	>
(<8FF#\L	.	.	.	.	.
8C#/	.	.	.	.	.
8A\J	.	.	.	.	.
8G#\L	.	.	.	.	.
8F#\	.	.	.	.	.
8c#\	.	8gg#\L]	.	.	.
8a>\J	.	8ff#/J)	.	.	]
.	.	.	.	.	.
=22	=22	=22	=22	=22	=22
*	*	*	*	*	*
8g#>\L	.	2rdd	1rddddyy	.	.
8f#>\	.	.	.	.	.
8a>\	.	.	.	.	.
8b>\J)	.	.	.	.	.
*Xped	*	*	*	*	*
4r	.	(8ccc#/ cc#/L	.	.	<
.	.	8ff#\	.	.	.
8r	.	8aa/	.	.	.
*ped	*	*	*	*	*
8BB/	.	8ddd#/J 8dd#/	.	.	[
*	*	*v	*v	*	*
=23	=23	=23	=23	=23
.	.	8qdd#/	.	.
(8BB\L	.	4.fff#\ 4.aa\ 4.dd#\	.	>
8EE/	.	.	.	.
8BB/	.	.	.	.
8G#\J	.	8eee\) 8gg#\ 8ee\	.	]
8F#\L	.	2r	.	.
8E\	.	.	.	.
8B\	.	.	.	.
8g#>\J	.	.	.	.
*	*	*	*	*
.	.	.	.	.
=24	=24	=24	=24	=24
*	*	*^	*	*
8f#>\L	.	2rdd	1ryy	.	.
8e>\	.	.	.	.	.
8g#>\	.	.	.	.	.
8a>\J)	.	.	.	.	.
!	!	!LO:N:vis=2	!	!	!
*Xped	*	*	*	*	*
2r	.	(8bb/ 8b/L	.	.	.
.	.	8ee\	.	.	.
.	.	8ff#/	.	.	.
.	.	8qaa/	.	.	.
.	.	8ggn/J	.	.	.
!!LO:PB:g=original
=25	=25	=25	=25	=25	=25
*ped	*	*	*	*	*
8r	.	[2.ff#\	1bb\ 1b\	.	.
(<\8EEL	.	.	.	.	.
8BB/	.	.	.	.	.
8Gn\J	.	.	.	.	.
8F#\L	.	.	.	.	.
8E\	.	.	.	.	.
8B\	.	8ff#/L]	.	.	.
8gn\J	.	8eeJ)\	.	.	.
=26	=26	=26	=26	=26	=26
*	*	*	*^	*	*
8f#>\L	.	2rdd	1ryy	1ryy	.	.
8e>\	.	.	.	.	.	.
8gn>\	.	.	.	.	.	.
8a>\J)	.	.	.	.	.	.
*Xped	*	*	*	*	*	*
4r	.	(8bb/ b/L	.	.	.	<
.	.	8ee\	.	.	.	.
8r	.	8ggn/	.	.	.	.
[<8AA/	.	8ccc#X/ 8cc#X/J	.	.	.	[
*	*	*v	*v	*v	*	*
=27	=27	=27	=27	=27
*ped	*	*	*	*
(8AA/L]	.	4ccc#X\ 4ggn\ 4cc#X\	.	.
8BB-X/	.	.	.	.
8Fn\	.	2dddn\ 2ffn\ 2ddn\	.	.
8dn\J	.	.	.	.
8cn\L	.	.	.	.
8B-X\	.	.	.	.
8fn>\	.	4cccn\ 4ff\ 4ccn\	.	.
*Xped	*	*	*	*
.	.	.	.	.
8ddny>\J)	.	.	.	.
.	.	.	.	.
=28	=28	=28	=28	=28
8r	.	4cccn\ 4ee-X\ 4ccn\	.	.
(>\8EE-XL	.	.	.	.
8BB-X/	.	4bb-X\ 4ggn\ 4b-X\	.	.
8Gn\J	.	.	.	.
8Fn\L	.	4gg\ 4ee-\ 4gn\	.	.
8E\	.	.	.	.
8B-X\	.	4bb-\ 4gg\ 4b-\	.	.
8gn\J)	.	.	.	.
.	.	.	.	.
!!LO:LB:g=original
=29	=29	=29	=29	=29
*ped	*	*	*	*
8r	.	1ffn\ 1ddn\ 1b-X\ 1fn\	.	>
(>\8FFnL	.	.	.	.
8Dn\	.	.	.	.
8Fn\J	.	.	.	.
8Gn\L	.	.	.	.
8F\	.	.	.	.
8e-X\	.	.	.	.
*Xped	*	*	*	*
8dn\J)	.	.	.	.
.	.	.	.	.
=30	=30	=30	=30	=30
*	*	*^	*	*
*ped	*	*	*	*	*
(>8FFFn/L	.	[2ffn/ [>2ddn/	1a\ 1e-X\	.	.
8FFn/	.	.	.	.	.
8Cn/	.	.	.	.	.
8E-X\J	.	.	.	.	.
8Gn\L	.	4.ff/] 4.dd/]	.	.	]
8Fn\	.	.	.	.	.
8dn\	.	.	.	.	.
*Xped	*	*	*	*	*
8cn\J)	.	8ee-X/	.	.	.
*	*	*v	*v	*	*
=31	=31	=31	=31	=31
*ped	*	*	*	*
(>8GGG-X/L	.	4dd-X\) 4b-X\ 4d-X/	.	.
8GG-X/	.	.	.	.
8D-X\	.	4r	.	.
8B-X\J	.	.	.	f
8A-X\L	.	(>2bb-X\ 2dd-\ 2b-\	.	.
8G-X\	.	.	.	.
8d-X\	.	.	.	.
*Xped	*	*	*	*
8b-X\J)	.	.	.	.
.	.	.	.	.
=32	=32	=32	=32	=32
*ped	*	*	*	*
!	!	!	!	!LO:DY:rj
8r	.	4aa-X\ 4cc-X\ 4a-X\	.	.
(>8CC-X/L	.	.	.	.
8GG-X/	.	4gg-X\ 4cc-\ 4g-X\	.	.
8E-X\J	.	.	.	.
8D-X\L	.	4ee-X\ 4cc-\ 4e-X\	.	.
8C-X/	.	.	.	.
8G-X\	.	4gg-\ 4cc-\ 4g-\	.	.
*Xped	*	*	*	*
8e-X\J)	.	.	.	.
!!LO:LB:g=original
=33	=33	=33	=33	=33
*ped	*	*	*	*
(>\8DD-XL	.	2dd-X/ 2b-X/ 2g-X/ 2d-X/	.	.
8D-X\	.	.	.	.
8G-X\	.	.	.	.
8B-X\J	.	.	.	.
8A-X\L	.	2ee-X/ 2dd-/ 2b-/ 2e-X/	.	.
8Gn\	.	.	.	.
8c-X\	.	.	.	.
*Xped	*	*	*	*
8B-\J)	.	.	.	.
=34	=34	=34	=34	=34
*^	*	*	*	*
8D-\L	(>1D-X\	.	2.ee-X/ 2.cc-X/ 2.a-X/ 2.e-X/	.	<
8Gn\	.	.	.	.	.
8A-X\	.	.	.	.	.
8c-X\J	.	.	.	.	.
8B-X\L	.	.	.	.	.
8A-\	.	.	.	.	.
8e-X\	.	.	4ffn/ 4dd-X/ 4cc-/ 4fn/	.	.
8d-X\J)	.	.	.	.	.
*v	*v	*	*	*	*
=35	=35	=35	=35	=35
*	*	*^	*	*
*ped	*	*	*	*	*
(8GGG-XL\	.	4.ffn\ 4.fn\	1dd-X\ b-X\	.	[
8GG-X/	.	.	.	.	.
8D-X\	.	.	.	.	.
8B-X\J	.	8gg-X\) 8g-X\	.	.	.
8A-XL\	.	2rb	.	.	.
8G-X\	.	.	.	.	.
8d-X>\	.	.	.	.	.
8b-y>\J	.	.	.	.	.
.	.	.	.	.	.
=36	=36	=36	=36	=36	=36
*	*	*	*^	*	*^
8a-X>\L	.	2rdd	2rddyy	1rgyy	.	.	.
8g-X>\	.	.	.	.	.	.	.
8b-X>\	.	.	.	.	.	.	.
8cc-X>\J)	.	.	.	.	.	.	.
!	!	!LO:N:vis=2	!	!	!	!	!
*Xped	*	*	*	*	*	*	*
2r	.	8dd-\L	(>4..ddd-X/	.	.	pp	>
.	.	8ff-\	.	.	.	.	.
.	.	8bb-\	.	.	.	.	.
.	.	8aa-X\J	.	.	.	.	.
.	.	.	16ddd-/	.	.	.	]
*	*	*	*v	*v	*	*v	*v
!!LO:LB:g=original
=37	=37	=37	=37	=37	=37
*ped	*	*	*	*	*
(<8GGG-X/L	.	[2.aa-X\	1ddd-X\ 1ff-X\ 1dd-X\	.	>
8GG-X\	.	.	.	.	.
8D-X\	.	.	.	.	.
8B-X\J	.	.	.	.	.
8A-X\L	.	.	.	.	.
8G-X\	.	.	.	.	.
8d->X\	.	8aa-\L]	.	.	.
8b->X\J	.	8gg-X/J)	.	.	]
.	.	.	.	.	.
=38	=38	=38	=38	=38	=38
8a-X>\L	.	2rgg	2raayy	.	.
8g-X>\	.	.	.	.	.
8b-X>\	.	.	.	.	.
8cc-X>\J)	.	.	.	.	.
!	!	!LO:N:vis=8.	!LO:TX:t=P:problem:bemole od 8ddd- i 4.ddd- powinny byc zlane	!	!
4r	.	8ddd-X 8dd-X\L	(>4.ddd-/	.	.
*Xped	*	*	*	*	*
.	.	8ff-X\	.	.	.
8r	.	8bb-X\	.	.	.
*ped	*	*	*	*	*
[8FF-X/	.	8dddn\J 8aa-X\ 8ddn\	8rByy	.	.
*	*	*v	*v	*	*
=39	=39	=39	=39	=39
(<8FF-X\L]	.	2eee-X\ 2ggn\ 2ee-X\	.	>
8EE-X\	.	.	.	.
8BB-X\	.	.	.	.
8Gn\J	.	.	.	.
8Fn\L	.	4bb-X\) 4gg\ 4b-X\	.	]
8E-X\	.	.	.	.
8B-X\	.	4raa	.	.
8gn>\J	.	.	.	.
.	.	.	.	.
=40	=40	=40	=40	=40
*	*	*^	*	*
*	*	*	*	*	*
8fn>\L	.	2rff	2rddyy	.	.
8e-X>\	.	.	.	.	.
8gn>\	.	.	.	.	.
8a-X>\J)	.	.	.	.	.
*Xped	*	*	*	*	*
!	!	!LO:N:vis=2	!	!	!
2r	.	8b-X\L	(>4..bb-X/	.	.
.	.	8ee-X\	.	.	.
.	.	8ggn\	.	.	.
.	.	8ffn\J	.	.	.
.	.	.	16bb-/	.	.
!!LO:PB:g=original
=41	=41	=41	=41	=41	=41
*ped	*	*	*	*	*
(<8EEE-X/L	.	[>2.ffn\	1bb-X\ 1ggn\ 1b-X\	.	>
8EE-X/	.	.	.	.	.
8BB-X/	.	.	.	.	.
8Gn/J	.	.	.	.	.
8Fn\L	.	.	.	.	.
8E-X\	.	.	.	.	.
8B-X\	.	8ffn\L]	.	.	.
8gn\J	.	8ee-X\J)	.	.	]
=42	=42	=42	=42	=42	=42
8fn>\L	.	2rdd	2raayy	.	<
8e-X>\	.	.	.	.	.
8gn>\	.	.	.	.	.
8a-X>\J)	.	.	.	.	.
*Xped	*	*	*	*	*
2r	.	8b-X\L	(>4.bb-X/	.	.
.	.	8ee-X\	.	.	.
.	.	8ggn\	.	.	.
.	.	8bn\J	8bbn/	.	.
=43	=43	=43	=43	=43	=43
*ped	*	*	*	*	*
(<8AAA-X/L	.	4bbn\ 4ggn\ 4bn\	1ee-X\	.	[
8AA-X/	.	.	.	.	.
8E-X\	.	4cccn\) 4aa-X\ 4ccn\	.	.	.
8cn\J	.	.	.	.	.
8B-X\L	.	2r	.	.	.
8A-X\	.	.	.	.	.
8e-X>\	.	.	.	.	.
8ccn>\J	.	.	.	.	.
.	.	.	.	.	.
=44	=44	=44	=44	=44	=44
8b-X>\L	.	2rgg	2rffyy	.	.
8a-X>\	.	.	.	.	.
8ccn>\	.	.	.	.	.
8dd-X>\J)	.	.	.	.	.
*Xped	*	*	*	*	*
!	!	!LO:N:vis=2	!	!	!
2r	.	8ee-X\L	(>4..eee-X/	.	.
.	.	8gg-X\	.	.	.
.	.	8cccn\	.	.	.
.	.	8bb-X\J	.	.	.
.	.	.	16eee-/	.	.
!!LO:LB:g=origial
=45	=45	=45	=45	=45	=45
*ped	*	*	*	*	*
(<8AAA-X/L	.	[2.bb-X\	1eee-X\ 1gg-X\ 1ee-X\	.	.
8AA-X/	.	.	.	.	.
8E-X/	.	.	.	.	.
8cn/J	.	.	.	.	.
8B-X\L	.	.	.	.	.
8A-X\	.	.	.	.	.
8e-X>\	.	8bb-\L]	.	.	.
8ccn>\J	.	8aa-X/J)	.	.	.
.	.	.	.	.	.
=46	=46	=46	=46	=46	=46
8b-X>\L	.	2rgg	2rffyy	.	.
8a-X>\	.	.	.	.	.
8ccn>\	.	.	.	.	.
8dd-X>\J)	.	.	.	.	.
!	!	!LO:N:vis=8.	!LO:TX:t=P:problem:bemole od 8eee- i 4.eee- powinny byc zlane	!	!
*Xped	*	*	*	*	*
4r	.	8eee-X\ 8ee-X\L	(>4.eee-X/	.	.
.	.	8gg-X\	.	.	.
8r	.	8cccn\	.	.	.
[8GG-X/	.	8eeen\J 8bb-X\ 8een\	8reyy	.	.
*	*	*v	*v	*	*
=47	=47	=47	=47	=47
(<8GG-X\L]	.	2fffn\ 2aa\ 2ffn\	.	.
8FFn\	.	.	.	.
8Cn\	.	.	.	.
8A\J	.	.	.	.
8Gn\L	.	4cccn\) 4aa\ 4ccn\	.	.
8Fn\	.	.	.	.
8cn\	.	4rff	.	.
8a>\J	.	.	.	.
.	.	.	.	.
=48	=48	=48	=48	=48
*	*	*^	*	*
*	*	*	*	*	*
8gn>\L	.	2rdd	2rgyy	.	.
8fn>\	.	.	.	.	.
8an>\	.	.	.	.	.
8b-X>\J)	.	.	.	.	.
*Xped	*	*	*	*	*
!	!	!LO:N:vis=2	!	!	!
2r	.	8ccn\L	(>4.cccn/	.	.
.	.	8ffn\	.	.	.
.	.	8aa\	.	.	.
.	.	8ggn\J	8ccc/	.	.
!!LO:LB:g=original
=49	=49	=49	=49	=49	=49
*ped	*	*	*	*	*
(<8FFFn/L	.	[>\2.ggn	1cccn\ 1aa\ 1ccn\	.	.
8FFn/	.	.	.	.	.
8Cn/	.	.	.	.	.
8A/J	.	.	.	.	.
8Gn\L	.	.	.	.	.
8Fn\	.	.	.	.	.
8cn\	.	8gg\L]	.	.	.
8a>\J	.	8ffn/J)	.	.	.
.	.	.	.	.	.
=50	=50	=50	=50	=50	=50
*	*	*	*	*	*
8gn>\L	.	2rgg	2ryy	.	.
8fn>\	.	.	.	.	.
8a>\	.	.	.	.	.
8b-X>\J)	.	.	.	.	.
*Xped	*	*	*	*	*
!	!	!LO:N:vis=8.	!LO:TX:t=P:problem:kasowniki od 8cccn- i 4.cccn- powinny byc zlane	!	!
2r	.	8cccn\ 8ccn\L	(>4.cccn/	.	<
.	.	8ffn\	.	.	.
.	.	8aa\	.	.	.
.	.	8ccc#X\J 8cc#X\	8ryy	.	.
*	*	*v	*v	*	*
=51	=51	=51	=51	=51
*ped	*	*	*	*
(>8EEE/L	.	:1ccc#\ :1aa\ :1ee\ :1cc#\	.	[
8EE/	.	.	.	.
8AA/	.	.	.	.
8E\J	.	.	.	.
8F#\L	.	.	.	.
8E\	.	.	.	.
8c#\	.	.	.	.
8a>\J)	.	.	.	.
.	.	.	.	.
=52	=52	=52	=52	=52
*^	*	*^	*	*
2reyy	8r	.	1ff#/	4bb\ 4b\	.	.
.	(>8DD#X\L	.	.	.	.	.
.	8BB\	.	.	4aa\ 4a\	.	.
.	8F#\J	.	.	.	.	.
4c#/	8c#\L	2	.	4ff#\ 4b\ 4a\ 4f#\	.	.
.	8D#\	.	.	.	.	.
4B/	8B\	3	.	4aa\ 4b\ 4a\	.	.
.	8a\J)	.	.	.	.	.
.	.	.	.	.	.	.
*v	*v	*	*	*	*	*
*	*	*v	*v	*	*
!!LO:LB:g=original
=53	=53	=53	=53	=53
8r	.	1ee/ 1cc#/ 1a/ 1e/	.	>
(>\8EEL	.	.	.	.
8AA/	.	.	.	.
8E\J	.	.	.	.
8F#\L	.	.	.	.
8E\	.	.	.	.
8dn\	.	.	.	.
8c#\J)	.	.	.	.
.	.	.	.	.
=54	=54	=54	=54	=54
*	*	*^	*	*
(>8EEE/L	.	[2ee/ [>2cc#/	1g\ 1e\ 1dn\	.	]
8EE/	.	.	.	.	.
8BB/	.	.	.	.	.
8E\J	.	.	.	.	.
8F#\L	.	4.ee/] 4.cc#/]	.	.	.
8E\	.	.	.	.	.
8c#\	.	.	.	.	.
8B\J)	.	8ddn/	.	.	.
.	.	.	.	.	.
*	*	*v	*v	*	*
=55	=55	=55	=55	=55
(>8FFFn/L	.	4ddn/ 4g#/ 4dn/	.	.
8FFn/	.	.	.	.
8Cn/	.	2ccn/ 2a/ 2cn/	.	.
8A\J	.	.	.	.
!	!	!LO:TX:b:t=cres_:problem:dynamics with extention lines	!	!LO:HP:b:t=cres
8Gn\L	.	.	.	<
8Fn\	.	.	.	.
8cn\	.	4aa\ 4cc\ 4a\	.	.
8a\J)	.	.	.	.
.	.	.	.	.
=56	=56	=56	=56	=56
*	*	*^	*	*
8r	.	1ddn\ 1b-X\	4ggn\ 4gn\	.	.
!LO:SIC:v:s=8BBB-	!	!	!	!	!
(>8BBBnX/L	.	.	.	.	.
8FFn/	.	.	4ffn\ 4fn\	.	.
8Dn/J	.	.	.	.	.
8Cn\L	.	.	4dd\ 4b-\ 4dn\	.	.
8BB-X\	.	.	.	.	.
8Fn\	.	.	4ff\ 4dd\ 4f\	.	.
8dn\J)	.	.	.	.	.
*	*	*v	*v	*	*
!!LO:PB:g=original
=57	=57	=57	=57	=57
(>8CCn\L	.	2ccn/ 2a/ 2fn/ 2cn/	.	.
8Cn/	.	.	.	.
8Fn\	.	.	.	.
8A\J	.	.	.	.
8Gn\L	.	2ddn/ 2cc/ 2a/ 2dn/	.	.
8F#X\	.	.	.	.
8B-X\	.	.	.	.
8A\J)	.	.	.	.
=58	=58	=58	=58	=58
*^	*	*	*	*
(8C\L	1Cn\	.	2.ddn/ 2.b-X/ 2.gn/ 2.dn/	.	.
8F#\	.	.	.	.	.
8Gn\	.	.	.	.	.
8B-X\J	.	.	.	.	.
8A\L	.	.	.	.	.
8G\	.	.	.	.	.
8dn\	.	.	4ee\ 4ccn\ 4b-\ 4e\	.	.
8cny\J)	.	.	.	.	[
*v	*v	*	*	*	*
=59	=59	=59	=59	=59
*	*	*^	*	*
8r	.	2ccn/ 2a/	4.ee\ 4.e\	.	>
(<\8FFnL	.	.	.	.	.
8Cn/	.	.	.	.	.
8A\J	.	.	8ffn\) 8fn\	.	]
8Gn\L	.	2rb	2ryy	.	.
8Fn\	.	.	.	.	.
8cn\	.	.	.	.	.
8a>\J	.	.	.	.	.
*	*	*v	*v	*	*
=60	=60	=60	=60	=60
8fn>\L	.	1rdd	.	.
8cn\	.	.	.	.
8A\	.	.	.	.
8d-X\J	.	.	.	.
8c\L	.	.	.	.
8A\	.	.	.	>
8Fn\	.	.	.	.
8a>\J	.	.	.	.
!!LO:PB:g=original
=61	=61	=61	=61	=61
!LO:TX:t=P:problem:koniec luku na gorze	!	!	!	!
8fn>\L	.	1rdd	.	.
8cn>\	.	.	.	.
8A\	.	.	.	.
8d-X\J	.	.	.	.
8cn\L	.	.	.	.
8A\	.	.	.	.
8Fn\	.	.	.	.
8B-X\J)>	.	.	.	.
=62	=62	=62	=62	=62
(8A\L	.	1rdd	.	.
8Fn\	.	.	.	.
8Cn/	.	.	.	.
8G-X\J	.	.	.	.
8F\L	.	.	.	.
8C\	.	.	.	.
8AA\	.	.	.	.
8D-X\J)	.	.	.	.
=63	=63	=63	=63	=63
*^	*	*^	*	*
*ped	*	*	*	*	*	*
4.rAyy	N(<8FFn\L	.	4r	2rcyy	.	.
.	8Cn\	.	.	.	.	.
.	<8A\J	.	8r	.	.	.
[<8Fn/	8ryy	.	8ryy	.	.	.
!	!	!	!	!LO:N:vis=2	!	!
!	!	!	!	!LO:TX:t=cres_:problem:dynamics with extention lines	!	!LO:HP:a:t=cres
2F/]	2ryy	.	2fn/	8fnL\	.	<
.	.	.	.	8B-X</	.	.
.	.	.	.	8Bn</	.	.
*Xped	*	*	*	*	*	*
.	.	.	.	.	.	.
.	.	.	.	8qd-X</	.	.
.	.	.	.	8cn</JN)	.	.
=64	=64	=64	=64	=64	=64	=64
*ped	*	*	*	*	*	*
N(<8EE\L	4.rcyy	.	4r	2rcyy	.	.
8C#X\	.	.	.	.	.	.
8A#X\J	.	.	8rb	.	.	.
8rGGyy	8ryy	.	N[<8F#</	.	.	.
!	!	!	!LO:N:vis=2	!	!	!
2rGGyy	2F#/N]	.	8f#\L	2f#/	.	.
.	.	.	8B</	.	.	.
.	.	.	8B#<X/	.	.	.
.	.	.	8qd#X<X/	.	.	.
.	.	.	8c#</JN)	.	.	[
*v	*v	*	*	*	*	*
!!LO:LB:g=original
=65	=65	=65	=65	=65	=65
*ped	*	*	*	*	*
N(<8DD#\L	.	4r	2rAyy	.	.
8C#\	.	.	.	.	.
8A#X\J	.	8r	.	.	.
8rGGyy	.	N[<8F##</	.	.	.
.	.	.	.	.	.
!	!	!LO:N:vis=2	!	!	!
2rGG	.	8f##X/L	2f##X/ 2F##</N]	.	.
*Xped	*	*	*	*	*
.	.	.	.	.	.
.	.	8c#/	.	.	.
.	.	8d#/	.	.	.
.	.	8qf#/	.	.	.
.	.	8e/JN)	.	.	.
*	*	*v	*v	*	*
=66	=66	=66	=66	=66
*^	*	*	*	*
*	*^	*	*	*	*
*ped	*	*	*	*	*	*
2rddyy	2rAyy	(<8GGG#/L	.	2r	.	.
.	.	8GG#/	.	.	.	.
.	.	8F#/	.	.	.	.
.	.	8An/J	.	.	.	.
.	.	.	.	.	.	.
8G#/L	4G#\	2rGG	.	2g#/	.	.
8B#X/	.	.	.	.	.	.
*Xped	*	*	*	*	*	*
8e>/	4ryy	.	.	.	.	.
8d#>/J 8F#/)	.	.	.	.	.	.
*	*v	*v	*	*	*	*
=67	=67	=67	=67	=67	=67
*ped	*	*	*	*	*
!	!	!	!	!	!LO:DY:rj
2E/	(>8CCC#\L	.	(4d#/	.	p>
.	8CC#\	.	.	.	.
.	8GG#\	.	4c#/)	.	.
.	8E\J	.	.	.	]
!	!	!	!	!	!LO:DY:b=2
2rcyy	8D#\L	.	2r	.	p
.	8C#\	.	.	.	.
.	8G#\	.	.	.	.
.	8e\J	.	.	.	.
.	.	.	.	.	.
*v	*v	*	*	*	*
=68	=68	=68	=68	=68
*	*	*^	*	*
8d#>\L	.	2r	2reyy	.	.
8c#>\	.	.	.	.	.
8e>\	.	.	.	.	.
8f#>\J)	.	.	.	.	.
!	!	!	!LO:N:vis=2	!	!
2r	.	(>2gg#/	8gg#\ 8g#\L	.	.
*Xped	*	*	*	*	*
.	.	.	.	.	.
.	.	.	8cc#\	.	.
.	.	.	8dd#\	.	.
.	.	.	8qff#/	.	.
.	.	.	8ee\J	.	.
!!LO:LB:g=original
=69	=69	=69	=69	=69	=69
8r	.	[2.dd#\	1gg#\ 1g#\	.	.
*ped	*	*	*	*	*
(<8CC#/L	.	.	.	.	.
8GG#/	.	.	.	.	.
8E/J	.	.	.	.	.
8D#\L	.	.	.	.	.
8C#\	.	.	.	.	.
8G#\	.	8dd#\L]	.	.	.
8e\J	.	8cc#\J)	.	.	.
.	.	.	.	.	.
=70	=70	=70	=70	=70	=70
8d#>\L	.	2r	2ryy	.	.
8c#>\	.	.	.	.	.
8e>\	.	.	.	.	.
8f#>\J)	.	.	.	.	.
!	!	!LO:N:vis=4.	!	!	!
*Xped	*	*	*	*	*
4r	.	(>8gg#\ 8g#\L	4.gg#/	.	<
.	.	8cc#\	.	.	.
8r	.	8ee\	.	.	.
*ped	*	*	*	*	*
[8FF#/	.	8aa#X\J 8a#X\	8rGyy	.	[
*	*	*v	*v	*	*
=71	=71	=71	=71	=71
.	.	8qqa#X/	.	>
(<8FF#\L]	.	4ccc#\ 4ee\ 4a#y\	.	.
8BBB/	.	.	.	.
8FF#/	.	4bb\) 4dd#\ 4b\	.	.
8D#\J	.	.	.	]
8C#\L	.	2r	.	.
8BB\	.	.	.	.
8F#\	.	.	.	.
8d#\J	.	.	.	.
.	.	.	.	.
=72	=72	=72	=72	=72
8c#>\L	.	2rdd	.	.
8B>\	.	.	.	.
8d#>\	.	.	.	.
8e>\J)	.	.	.	.
!	!	!LO:N:vis=2	!	!
2r	.	(>8ff#\ 8f#\L	.	.
.	.	8b\	.	.
.	.	8cc#\	.	.
.	.	8qee/	.	.
.	.	8ddn\J	.	.
!!LO:PB:g=original
=73	=73	=73	=73	=73
*	*	*^	*	*
8r	.	[2.cc#\	1ff#\ 1f#\	.	.
*ped	*	*	*	*	*
.	.	.	.	.	.
(<8BBB/L	.	.	.	.	.
8FF#/	.	.	.	.	.
8Dn/J	.	.	.	.	.
8C#\L	.	.	.	.	.
8BB\	.	.	.	.	.
8F#\	.	8cc#\L]	.	.	.
8dn\J	.	8b\J)	.	.	.
*	*	*	*Xped	*	*
.	.	.	.	.	.
=74	=74	=74	=74	=74	=74
8c#\L	.	2rb	2ryy	.	.
8B\	.	.	.	.	.
8dn\	.	.	.	.	.
8e>\J)	.	.	.	.	.
*Xped	*	*	*	*	*
!	!	!LO:N:vis=8.	!	!	!
4r	.	(>8ff#\ 8f#\L	4.ff#/	.	<
.	.	8b\	.	.	.
8r	.	8ddn\	.	.	.
[<8EE/	.	8gg#\J 8g#\	8rcyy	.	.
*ped	*	*	*	*	*
.	.	.	.	.	.
*	*	*v	*v	*	*
=75	=75	=75	=75	=75
(>8EE/L]	.	4bb\ 4ddn\ 4g#\	.	[
8AAA/	.	.	.	.
8EE/	.	2aa\ 2cc#\ 2a\	.	.
8C#/J	.	.	.	.
8BB\L	.	.	.	.
8AA\	.	.	.	.
8E\	.	4gg#\ 4cc#\ 4g#\	.	.
8c#\J	.	.	.	.
.	.	.	.	.
!!LO:LB:g=original
=76	=76	=76	=76	=76
*	*	*^	*	*
*Xped	*	*	*	*	*
8B\L	.	1cc#/	[>2gg#\ [2g#\	.	>
8A\	.	.	.	.	.
8c#\	.	.	.	.	.
8f#\J	.	.	.	.	.
8e\L	.	.	4.gg#\] 4.g#\]	.	.
8c#\	.	.	.	.	]
8A\	.	.	.	.	.
8d#\J	.	.	8ff##X\>) 8f##X\	.	.
*	*	*v	*v	*	*
=77	=77	=77	=77	=77
8c#\L	.	1rdd	.	.
8A\	.	.	.	.
!	!	!LO:TX:b:t=ritenuto.	!	!
8E\	.	.	.	.
8f#\J	.	.	.	.
8e\L	.	.	.	.
8c#\	.	.	.	.
8A\	.	.	.	.
8d#\J	.	.	.	.
=78	=78	=78	=78	=78
8c#\L	.	2rb	.	.
8A\	.	.	.	.
8E\	.	.	.	.
8B\J	.	.	.	.
!	!	!LO:N:vis=2	!	!
8A\L	.	(>8f##X\L	.	<
8E\	.	8cc#\	.	.
8D#\	.	8dd#\	.	.
.	.	8qff#X/	.	.
8C#/J)	.	8ee\J	.	[
!!LO:LB:g=original
=79	=79	=79	=79	=79
*	*	*^	*	*
!	!	!LO:TX:a:t=P:całe nuty w połowie taktu:problem	!	!	!
*ped	*	*	*	*	*
1c#\ 1AA\:	.	1aa/; 1f##X/	4.dd#\	.	>
!LO:TX:a:i:B:t=leggier	!	!	!	!	!
.	.	.	8cc#\)	.	]
*Xped	*	*	*	*	*
.	.	.	2rb	.	.
.	.	.	.	.	.
*	*	*v	*v	*	*
=-	=-	=-	=-	=-
!	!	!LO:TX:B:t=Cadenza.	!	!
8gn\L 8c#\	.	(>8ee\L 8a\	.	.
8e\ 8A\	.	8aa\ 8cc#\	.	.
8f#X\ 8c#\	.	8dd#\ 8a\	.	.
8d#\J 8F#\	.	8aa\J 8cc#\	.	.
8f#\L 8B#X\	.	8dd#\L 8g#\	.	.
8d#\ 8G#X\	.	8gg#X\ 8b#X\	.	.
8fn\ 8cn\	.	8ddn\ 8a-X\	.	.
8dn\J 8Fn\	.	8aa-X\J 8ccn\	.	.
8fX\L 8Bny\	.	8dd\L 8gn\	.	.
8d\ 8Gn\	.	8ggn\ 8by\	.	.
8e\ 8B\	.	8cc#X\ 8g\	.	.
8c#Xy\J 8E\	.	8gg\J 8b\	.	.
8e\L 8A#X\	.	8cc#\L 8f#X\	.	.
!LO:SIC:v:n=2:s=8F#	!	!	!	!
8c#\ 8FX\	.	8ff#X\ 8a#X\	.	.
8e-X\ 8B-X\	.	8ccn\ 8g-X\	.	.
8cn\J 8E-X\	.	8gg-X\J 8b-X\	.	.
8e\L 8Any\	.	8cc\L 8fn\	.	.
8c\ 8Fn\	.	8ffn\ 8an\	.	.
8dn\ 8A\	.	8bn\ 8f\	.	.
8Bn\J 8Dn\	.	8ff\J 8a\	.	.
!!LO:LB:g=original
=-	=-	=-	=-	=-
8d#y\L 8G#X\	.	8bn\L 8eny\	.	.
8B\ 8Eny\	.	8ee\ 8g#X\	.	.
8c#X\ 8G#\	.	8a#X\ 8e\	.	.
8A#X\J 8C#\	.	8ee\J 8g#\	.	.
8c#\L 8F##X\	.	8a#y\L 8d#X\	.	.
8A#Xy\ 8D#X\	.	8dd#y\ 8f##X\	.	.
8cn\ 8Gn\	.	8an\ 8e-X\	.	.
8An\J 8Cn\	.	8ee-\J 8gn\	.	.
8c\L 8F#X\	.	8a\L 8dn\	.	.
8A\ 8Dn\	.	8ddn\ 8f#X\	.	.
8B\ 8F#\	.	8g#X\ 8d\	.	.
!LO:SIC:v:n=1:s=8G#	!	!	!	!
8GX\J 8BB\	.	8dd\J 8f#X\	.	.
8B\L 8Fn\	.	8g#\L 8d\	.	.
8A#X\ 8E\	.	8cc#X\ 8gn\	.	.
8B\ 8F\	.	8dd\ 8a-X\	.	.
8dn\J 8G#y\	.	8b\J 8fn\	.	.
8B\L 8Fny\	.	8dd\L 8g#X\	.	.
8cn\ 8F#X\	.	8dd#X\ 8an\	.	.
!LO:SIC:v:n=1:s=8c#:n=2:s=8Gn	!	!	!	!
8cnX\ 8G#X\	.	8eeny\ 8b-X\	.	.
8eny\J 8B-X\	.	8cc#X\J 8gy\	.	.
8c#\L 8Gy\	.	8ee\L 8b-\	.	.
8dny\ 8G#X\	.	8ffn\ 8bn\	.	.
!	!	!LO:SIC:v:n=2:s=8ccn	!	!
8d#X\ 8Any\	.	8ff#X\ 8bn\	.	.
8f#y\J 8cn\	.	8dd#X\ 8a\J	.	.
!!LO:PB:g=original
=-	=-	=-	=-	=-
!	!	!LO:SIC:v:n=2:s=8ccn	!	!
8d#\L 8A\	.	8ff#\ 8cc#\L	.	.
8e\ 8B-X\	.	8ggn\ 8cc#X\	.	.
8fn\ 8Bn\	.	8gg#X\ 8ddn\	.	.
8g#X\J 8dy\	.	8ffn\J 8b\	.	.
*clefG2	*	*	*	*
8fn/L 8B/	.	8gg#\L 8dd\	.	.
8f#X/ 8cn/	.	8aany\ 8ee-X\	.	.
8gn/ 8c#X/	.	8bb-X\ 8een\	.	.
!	!	!LO:SIC:v:n=1:s=8ggn	!	!
8b-X/J 8e/	.	8gg#\J 8cc#X\	.	.
8gny/L 8c#/	.	8bb-y\L 8ee\	.	.
8g#X/ 8dn/	.	8bbn\ 8ff\	.	.
8a/ 8d#X/	.	8cccn\ 8ff#X\	.	.
8ccn/J 8f#/	.	8aa\J 8dd#X\	.	.
=-	=-	=-	=-	=-
8a\L 8d#\	.	8bb#X\L 8ff#X\	.	.
8a#X\ 8e\	.	8ccc#X\ 8ff##X\	.	.
!LO:SIC:v:n=1:s=8cc#	!	!	!	!
8cc\ 8f##X\	.	8eee\ 8aa#X\	.	.
8ee\J 8a#\	.	8fff##X\J 8ccc#\	.	.
*	*	*8va	*	*
!LO:SIC:v:n=1:s=8cc#	!	!	!	!
8cc\L 8f##\	.	8eee\L 8aa#\	.	.
8ee\ 8a#\	.	8fff##X\ 8ccc#\	.	.
!LO:SIC:v:n=2:s=8cc#	!	!	!	!
8ff##X\ 8cc\	.	8aaa#y\ 8eee\	.	.
8aa#X\J 8ee\	.	8eeee\J 8fff##\)	.	.
*	*	*X8va	*	*
*clefF4	*	*	*	*
=80	=80	=80	=80	=80
*ped	*	*	*	*
!	!	!LO:TX:a:t=loco	!	!
4GGG#/	.	(>[2gg#\ 2ee\ 2cc#\ 2g#\	.	f
4r	.	.	.	.
4e\ 4c#\ 4G#\ 4E\	.	8gg#\L]	.	.
.	.	8ccc#\	.	.
4r	.	8bb\	.	.
.	.	8aa\J	.	.
!!LO:LB:g=original
=81	=81	=81	=81	=81
1rF	.	8ff##X\L	.	.
.	.	8gg#\	.	.
.	.	8ee\	.	.
.	.	8b#X\J	.	.
.	.	8dd#\L	.	.
.	.	8ee\	.	.
.	.	8cc#\	.	.
.	.	8f##X\J	.	.
=82	=82	=82	=82	=82
1rF	.	1g#/	.	.
=83	=83	=83	=83	=83
1GG#/ 1F#	.	1B#	.	>
=84	=84	=84	=84	=84
!LO:CL:	!	!	!	!
*ped	*	*	*	*
8rGG	.	2c#>/) 2E</	.	]
(>8CC#/L	.	.	.	p
8GG#/	.	.	.	.
8E/J	.	.	.	.
8D#\L	.	2r	.	]
*Xped	*	*	*	*
.	.	.	.	.
8C#\	.	.	.	.
8A\^>	.	.	.	.
8e\J	.	.	.	.
!!LO:LB:g=original
=85	=85	=85	=85	=85
*	*	*^	*	*
!LO:TX:t=P:problem:zakonczenie luku na gorze	!	!	!	!	!
8d#>\L	.	2raayy	2ryy	.	.
8c#>\	.	.	.	.	.
8e>\	.	.	.	.	.
8gn>\J)	.	.	.	.	.
!	!	!	!LO:N:vis=8.	!	!
2r	.	(>4..aa/	8aa\ 8a\L	.	>
*Xped	*	*	*	*	*
.	.	.	.	.	.
.	.	.	8cc#\	.	.
.	.	.	8ff#\	.	.
.	.	.	8ee\J 8gn\	.	.
.	.	16aa/	.	.	.
=86	=86	=86	=86	=86	=86
8r	.	1ddn/	2aa\: 2f#\:	.	.
*ped	*	*	*	*	*
.	.	.	.	.	.
(>8DDn\L	.	.	.	.	.
8AA\	.	.	.	.	.
8F#\J	.	.	.	.	.
8E\L	.	.	2ff#\ 2a\	.	]
8Dn\	.	.	.	.	.
8A\	.	.	.	.	.
*Xped	*	*	*	*	*
8f#\J)	.	.	.	.	.
=87	=87	=87	=87	=87	=87
8r	.	2rgggyy	2gg#\ 2b#X\ 2f#\	.	.
*ped	*	*	*	*	*
(>8GG#\L	.	.	.	.	.
8D#X\	.	.	.	.	.
8B#X\J	.	.	.	.	.
4f#\)	.	4.bb#/	8bb#\ 8b#\L	.	>
.	.	.	8ee\	.	.
*Xped	*	*	*	*	*
4r	.	.	8gg#\	.	.
.	.	8rbbbyy	8bb#\J 8ff#\ 8dd#\	.	]
!!LO:LB:g=original
=88	=88	=88	=88	=88	=88
8r	.	[>2.bb#X\ [<2.b#X\	1ee\	.	>
*ped	*	*	*	*	*
(<8CC#/L	.	.	.	.	.
8GG#/	.	.	.	.	.
8E/J	.	.	.	.	.
8D#\L	.	.	.	.	.
*Xped	*	*	*	*	*
8C#/	.	.	.	.	.
8G#\	.	8bb#\L] 8b#]\	.	.	.
*ped	*	*	*	*	*
8e\J	.	8ccc#\J) 8cc#\	.	.	]
.	.	.	.	.	.
*	*	*v	*v	*	*
=89	=89	=89	=89	=89
8d#>\L	.	2r	.	.
8c#>\	.	.	.	.
8g#>\	.	.	.	.
!	!	!LO:TX:b:t=smorz	!	!
8ee>\J	.	.	.	.
8dd#>\L	.	4reee	.	.
8cc#>\	.	.	.	.
8ee>\J)	.	8reee	.	.
!	!	!LO:TX:a:t=P:cross-measure beam:problem	!	!
8re>	.	(</8ccc#L	.	.
=90	=90	=90	=90	=90
2r	.	8cccc#/J)	.	.
.	.	8r	.	.
.	.	4r	.	.
2GG#\ 2CC#\	.	(>2e/ 2G#</ 2E</	.	.
=91	=91	=91	=91	=91
1E/ 1GG#/ 1CC#/	.	1c#/)	.	.
!	!	!LO:TX:a:B:t=Fine.	!	!
.	.	.	.	.
==	==	==	==	==
*-	*-	*-	*-	*-
!!title: @{OTL}; @{OPS} @{ONM} publisher: @{PPR}
!!!RDF**kern: > = above
!!!RDF**kern: < = below
!!!RDF**kern: N = linked
!!!RDF**dynam: < = "cresc"
!!!RDF**dynam: > = "dim"
!!!ENC: Andrzej Borzym
!!!END: 2020-12-26
!!!rism-genre: Prelude
!!!rism-key: C-sharp minor
!!!rism-opus: op.  45
!!!rism-title: Prelude in C-sharp minor op.  45
!!!rism-permalink: 
